fs/camera_add_20_regular.svg

<svg viewBox="0 0 20 20" fill="none" xmlns="http://www.w3.org/2000/svg" height="1em" width="1em">
  <path d="M8.12412 2C7.55707 2 7.03849 2.31977 6.78386 2.82643L6.19437 3.9994H4.50488C3.12417 3.9994 2.00488 5.11868 2.00488 6.4994V14.5C2.00488 15.8807 3.12417 17 4.50488 17H9.59989C9.43795 16.6832 9.30582 16.3486 9.20722 16H4.50488C3.67646 16 3.00488 15.3284 3.00488 14.5V6.4994C3.00488 5.67097 3.67646 4.9994 4.50488 4.9994H6.50268C6.69169 4.9994 6.86455 4.89281 6.94943 4.72392L7.67736 3.27548C7.76224 3.10659 7.9351 3 8.12412 3H11.8883C12.0777 3 12.2509 3.10702 12.3356 3.27643L13.0587 4.72296C13.1433 4.89238 13.3165 4.9994 13.5059 4.9994H15.5049C16.3333 4.9994 17.0049 5.67097 17.0049 6.4994V9.60212C17.3627 9.78548 17.6978 10.0069 18.0049 10.261V6.4994C18.0049 5.11869 16.8856 3.9994 15.5049 3.9994H13.8149L13.23 2.8293C12.976 2.32106 12.4565 2 11.8883 2H8.12412ZM10.0002 6.00003C11.8763 6.00003 13.4508 7.29169 13.8828 9.03426C13.5457 9.07192 13.2178 9.14004 12.902 9.23581C12.564 7.94911 11.3929 7.00003 10.0002 7.00003C8.34333 7.00003 7.00018 8.34318 7.00018 10C7.00018 11.3928 7.94927 12.5639 9.23598 12.9018C9.14021 13.2177 9.07209 13.5456 9.03444 13.8827C7.29186 13.4507 6.00018 11.8762 6.00018 10C6.00018 7.79089 7.79104 6.00003 10.0002 6.00003ZM19.0002 14.5C19.0002 16.9853 16.9855 19 14.5002 19C12.0149 19 10.0002 16.9853 10.0002 14.5C10.0002 12.0147 12.0149 10 14.5002 10C16.9855 10 19.0002 12.0147 19.0002 14.5ZM15.0002 12.5C15.0002 12.2239 14.7763 12 14.5002 12C14.224 12 14.0002 12.2239 14.0002 12.5V14H12.5002C12.224 14 12.0002 14.2239 12.0002 14.5C12.0002 14.7761 12.224 15 12.5002 15H14.0002V16.5C14.0002 16.7761 14.224 17 14.5002 17C14.7763 17 15.0002 16.7761 15.0002 16.5V15H16.5002C16.7763 15 17.0002 14.7761 17.0002 14.5C17.0002 14.2239 16.7763 14 16.5002 14H15.0002V12.5Z" fill="#212121"/>
</svg>

<svg viewBox="0 0 20 20" fill="none" xmlns="http://www.w3.org/2000/svg" height="1em" width="1em">
  <path d="M8.124 2a1.5 1.5 0 0 0-1.34.826L6.194 4h-1.69a2.5 2.5 0 0 0-2.5 2.5v8a2.5 2.5 0 0 0 2.5 2.5H9.6a5.464 5.464 0 0 1-.393-1H4.505a1.5 1.5 0 0 1-1.5-1.5v-8a1.5 1.5 0 0 1 1.5-1.5h1.998a.5.5 0 0 0 .446-.276l.728-1.449A.5.5 0 0 1 8.124 3h3.764a.5.5 0 0 1 .448.276l.723 1.447a.5.5 0 0 0 .447.276h1.999a1.5 1.5 0 0 1 1.5 1.5v3.103a5.49 5.49 0 0 1 1 .659V6.499a2.5 2.5 0 0 0-2.5-2.5h-1.69l-.585-1.17A1.5 1.5 0 0 0 11.888 2H8.124ZM10 6a4.002 4.002 0 0 1 3.883 3.034 5.471 5.471 0 0 0-.981.202 3.001 3.001 0 1 0-3.666 3.666 5.473 5.473 0 0 0-.202.98A4.002 4.002 0 0 1 10 6Zm9 8.5a4.5 4.5 0 1 1-9 0 4.5 4.5 0 0 1 9 0Zm-4-2a.5.5 0 0 0-1 0V14h-1.5a.5.5 0 1 0 0 1H14v1.5a.5.5 0 1 0 1 0V15h1.5a.5.5 0 0 0 0-1H15v-1.5Z" fill="#212121"/>
</svg>
